X:73
%%score 1 2
T:The blind beggar
M:C
L:1/8
K:Bb
V:1 clef-treble
V:2 clef-bass octave=-1
V:1
d>c&[DA]2|B>c(A>B) (GB)AG&[DG]2[C^F]2B,2[B,E]2|F>GF>D[B,D]2D2&[B,C]2[A,C]2x4|
w:It* was a blind* beg-*gar had long* lost his sight, He
V:2
^F2|G2D2E2C2|F2F,2B,2[^FB]2&x6D>C|
V:1
G>A[C^F]2[B,DG]2A>A&D2x4D2|[DB]2[DA]G[^FAd]2(d>c)&x6[DA]2|(B>c)A>B [B,G]B(AG)&[DG]2[C^F]2x2[B,E]2|
w:had a fair daughter* of beau-ty most bright; And* ma-*ny a gallant* brave*
V:2
[B,G]2A,2G,2^F,2|G,2=F,E,D,2^F2|G2D2E2C2|
V:1
(=F>G)F>E[B,D]2D2&[B,C]2[A,C]2x4|[DG]2[CEG]A[B,DB]2[DA]G|[D^F]G[CFA]2[B,G]2||
w:sui-*tor had she, For none was so come-ly as pret-ty Bes sie.
V:2
F2F,2B,2[^FA]2 & x6D>C|G2C2G,2B,2 &B,2x6|D2D,2G,2||

